src/assets/tenzir-dark.svg

<svg width="100" height="40" viewBox="0 -1 100 40" fill="none" xmlns="http://www.w3.org/2000/svg">
<g clip-path="url(#clip0_28_22)">
<path d="M9.63 22.745L13.9738 12.4675C13.9925 12.4275 14.0025 12.3825 14.0037 12.3387C14.0037 12.2937 13.9962 12.25 13.98 12.2087C13.9637 12.1675 13.9375 12.13 13.9062 12.0987C13.875 12.0675 13.8363 12.0425 13.795 12.0275C13.7538 12.0112 13.7087 12.0012 13.665 12.0012H3.0425C2.97375 11.9962 2.90375 12.0137 2.84625 12.0512C2.7875 12.0887 2.7425 12.1425 2.71625 12.2075L1.0275 16.2787C1.01 16.3187 1 16.3637 1 16.4075C1 16.4525 1.0075 16.4962 1.025 16.5375C1.0425 16.5787 1.0675 16.615 1.09875 16.6462C1.13125 16.6775 1.16875 16.7012 1.21 16.7175C1.25 16.735 1.29375 16.7437 1.3375 16.7437H6.4825C6.56875 16.7437 6.6525 16.7787 6.71375 16.84C6.775 16.9012 6.80875 16.985 6.80875 17.0712C6.80875 17.1162 6.8 17.16 6.7825 17.2025L2.49375 27.5325C2.475 27.5737 2.465 27.6175 2.465 27.6625C2.465 27.7075 2.4725 27.7512 2.49 27.7925C2.5075 27.8337 2.5325 27.8712 2.565 27.9025C2.5975 27.9337 2.635 27.9575 2.6775 27.9737C2.7175 27.9912 2.76125 28 2.805 28H14.0638C14.1338 28.005 14.2025 27.9862 14.2612 27.9487C14.32 27.9112 14.365 27.8562 14.39 27.79L16.0938 23.6787C16.11 23.6375 16.1175 23.5937 16.1163 23.55C16.115 23.5062 16.105 23.4625 16.0863 23.4225C16.0675 23.3825 16.0412 23.3462 16.0087 23.3175C15.9762 23.2875 15.9375 23.265 15.8962 23.2512C15.8562 23.2337 15.8125 23.225 15.7688 23.225H9.93875C9.8525 23.225 9.76875 23.19 9.7075 23.1287C9.64625 23.0675 9.6125 22.9837 9.6125 22.8975C9.6075 22.845 9.615 22.7925 9.6325 22.7437L9.63 22.745Z" fill="white"/>
<path d="M12.1462 21.8162H16.6212C16.6874 21.8175 16.7537 21.7987 16.8087 21.7625C16.8637 21.7262 16.9074 21.6725 16.9312 21.6112L18.8899 16.9512C18.9149 16.89 18.9574 16.8362 19.0124 16.8C19.0674 16.7637 19.1337 16.7437 19.1999 16.7462H24.9712C25.0399 16.7512 25.1099 16.7337 25.1687 16.6962C25.2274 16.6587 25.2724 16.605 25.2987 16.54L26.9699 12.4687C26.9887 12.4275 26.9987 12.3837 26.9987 12.3387C26.9987 12.2937 26.9912 12.25 26.9737 12.2087C26.9562 12.1675 26.9312 12.13 26.8987 12.0987C26.8662 12.0675 26.8287 12.0437 26.7862 12.0275C26.7462 12.01 26.7024 12.0012 26.6587 12.0012H15.9487C15.8799 11.9962 15.8099 12.0137 15.7512 12.0512C15.6924 12.0887 15.6474 12.1425 15.6212 12.2075L11.8187 21.3575C11.7999 21.3975 11.7899 21.4425 11.7887 21.4862C11.7887 21.5312 11.7962 21.575 11.8124 21.6162C11.8287 21.6575 11.8549 21.695 11.8862 21.7262C11.9174 21.7575 11.9562 21.7825 11.9974 21.7975C12.0449 21.8137 12.0949 21.8212 12.1449 21.8175L12.1462 21.8162Z" fill="white"/>
<path d="M44.1788 14H33.2988C33.2188 14 33.1425 14.0313 33.0863 14.0875C33.03 14.1438 32.9988 14.22 32.9988 14.3V16.7875C32.9988 16.8675 33.03 16.9438 33.0863 17C33.1425 17.0562 33.2188 17.0875 33.2988 17.0875H36.6163C36.6963 17.0875 36.7725 17.1188 36.8288 17.175C36.885 17.2313 36.9163 17.3075 36.9163 17.3875V25.685C36.9163 25.765 36.9475 25.8413 37.0038 25.8975C37.06 25.9538 37.1363 25.985 37.2163 25.985H40.2575C40.3375 25.985 40.4138 25.9538 40.47 25.8975C40.5263 25.8413 40.5575 25.765 40.5575 25.685V17.3875C40.5575 17.3075 40.5888 17.2313 40.645 17.175C40.7013 17.1188 40.7775 17.0875 40.8575 17.0875H44.1788C44.2588 17.0875 44.335 17.0562 44.3913 17C44.4475 16.9438 44.4788 16.8675 44.4788 16.7875V14.3C44.4788 14.22 44.4475 14.1438 44.3913 14.0875C44.335 14.0313 44.2588 14 44.1788 14Z" fill="white"/>
<path d="M75.2737 23.12C75.1087 23.12 75.0675 23.0275 75.1775 22.9075L76.93 20.955C77.0412 20.8325 77.215 20.6275 77.3225 20.5025L80.4725 16.735C80.5875 16.5812 80.655 16.3962 80.665 16.2037V14.3012C80.665 14.2212 80.6337 14.145 80.5775 14.0887C80.5212 14.0325 80.445 14.0012 80.365 14.0012H71.2575C71.1775 14.0012 71.1012 14.0325 71.045 14.0887C70.9887 14.145 70.9575 14.2212 70.9575 14.3012V16.6025C70.9575 16.6825 70.9887 16.7587 71.045 16.815C71.1012 16.8712 71.1775 16.9025 71.2575 16.9025H73.3575L76.0125 16.87C76.1775 16.87 76.2225 16.9625 76.1087 17.0825L74.3575 19.035C74.25 19.1575 74.0725 19.3625 73.965 19.4912L70.8087 23.2562C70.6937 23.41 70.6262 23.595 70.6162 23.7875V25.6862C70.6162 25.7662 70.6475 25.8425 70.7037 25.8987C70.76 25.955 70.8362 25.9862 70.9162 25.9862H80.39C80.47 25.9862 80.5462 25.955 80.6025 25.8987C80.6587 25.8425 80.69 25.7662 80.69 25.6862V23.3887C80.69 23.3087 80.6587 23.2325 80.6025 23.1762C80.5462 23.12 80.47 23.0887 80.39 23.0887H77.9187L75.2762 23.1212L75.2737 23.12Z" fill="white"/>
<path d="M86.275 14H83.2325C83.0662 14 82.9325 14.1337 82.9325 14.3V25.6912C82.9325 25.8562 83.0662 25.9913 83.2325 25.9913H86.275C86.4412 25.9913 86.575 25.8562 86.575 25.6912V14.3C86.575 14.1337 86.4412 14 86.275 14Z" fill="white"/>
<path d="M66.0076 26C65.9163 25.995 65.8263 25.9713 65.7451 25.9288C65.6638 25.8875 65.5913 25.8275 65.5338 25.7563L61.1426 19.4887C61.0551 19.3512 60.9863 19.3713 60.9951 19.5363L61.0851 25.6987C61.0851 25.7787 61.0538 25.855 60.9976 25.9113C60.9413 25.9675 60.8651 25.9987 60.7851 25.9987H58.1988C58.1188 25.9987 58.0426 25.9675 57.9863 25.9113C57.9301 25.855 57.8988 25.7787 57.8988 25.6987V14.3C57.8988 14.22 57.9301 14.1438 57.9863 14.0875C58.0426 14.0313 58.1188 14 58.1988 14H60.5263C60.6188 14.005 60.7088 14.0287 60.7913 14.07C60.8738 14.1112 60.9476 14.1688 61.0063 14.24L65.1701 20.1175C65.2601 20.2588 65.3226 20.2375 65.3176 20.0725L65.2276 14.3C65.2276 14.22 65.2588 14.1438 65.3151 14.0875C65.3713 14.0313 65.4475 14 65.5275 14H68.1138C68.1938 14 68.2701 14.0313 68.3263 14.0875C68.3826 14.1438 68.4138 14.22 68.4138 14.3V25.7C68.4138 25.78 68.3826 25.8563 68.3263 25.9125C68.2701 25.9688 68.1938 26 68.1138 26H66.0076Z" fill="white"/>
<path d="M98.9725 25.7125L97.1725 22.2537L96.8 21.5425C96.7725 21.495 96.755 21.4587 96.7463 21.4375C96.7425 21.4312 96.74 21.4225 96.74 21.415C96.74 21.4075 96.7425 21.3987 96.7463 21.3925C96.7463 21.3925 96.7913 21.3387 96.8425 21.2875C96.8425 21.2875 97.1125 21.005 97.4425 20.5825C98.045 19.855 98.375 18.9387 98.3725 17.9937C98.3788 17.035 98.0388 16.105 97.4138 15.3775C96.7888 14.65 95.9225 14.1725 94.9738 14.0337C94.8413 14.0187 94.71 14.01 94.5713 14.0012H89.1263C89.0463 14.0012 88.97 14.0325 88.9138 14.0887C88.8575 14.145 88.8263 14.2212 88.8263 14.3012V25.6737C88.8263 25.7537 88.8575 25.83 88.9138 25.8862C88.97 25.9425 89.0463 25.9737 89.1263 25.9737H91.7963C91.8763 25.9737 91.9525 25.9425 92.0088 25.8862C92.065 25.83 92.0963 25.7537 92.0963 25.6737V22.0737C92.0963 22.0337 92.1138 21.9962 92.1413 21.9687C92.1688 21.9412 92.2075 21.925 92.2463 21.9237H93.2725C93.3163 21.9262 93.36 21.94 93.3975 21.9637C93.435 21.9875 93.4663 22.02 93.4888 22.0587L94.02 23.1662L95.2413 25.6925C95.2838 25.77 95.3463 25.8362 95.4225 25.8837C95.4975 25.9312 95.585 25.9587 95.6738 25.9625H98.79C98.8225 25.9712 98.8563 25.97 98.8888 25.96C98.92 25.9487 98.9488 25.9287 98.9688 25.9012C98.9888 25.8737 99 25.8412 99.0013 25.8087C99.0013 25.775 98.9925 25.7425 98.9738 25.7137L98.9725 25.7125ZM93.8738 19.3125H92.1213C92.09 19.3125 92.0613 19.2987 92.0388 19.2775C92.0175 19.2562 92.005 19.2262 92.0038 19.195V16.84C92.0038 16.8087 92.0175 16.78 92.0388 16.7575C92.06 16.7362 92.09 16.7237 92.1213 16.7225H93.9213C94.9238 16.7225 95.3163 17.2475 95.3163 17.9912C95.325 18.8375 94.9138 19.3112 93.8738 19.3112V19.3125Z" fill="white"/>
<path d="M55.6012 23.0025H50.025C49.9925 23.0025 49.9625 22.99 49.94 22.9675C49.9175 22.945 49.905 22.915 49.905 22.8825V21.365C49.905 21.3337 49.9187 21.3037 49.9412 21.2812C49.9637 21.2587 49.9937 21.2462 50.025 21.245H53.1387C53.2187 21.245 53.295 21.2137 53.3512 21.1575C53.4075 21.1012 53.4387 21.025 53.4387 20.945V18.59C53.4387 18.51 53.4075 18.4337 53.3512 18.3775C53.295 18.3212 53.2187 18.29 53.1387 18.29H50.025C49.9925 18.29 49.9625 18.2775 49.94 18.255C49.9175 18.2325 49.905 18.2025 49.905 18.17V17.105C49.905 17.0737 49.9187 17.0437 49.9412 17.0225C49.9637 17.0012 49.9937 16.9887 50.025 16.9887H55.4762C55.5562 16.9887 55.6325 16.9575 55.6887 16.9012C55.745 16.845 55.7762 16.7687 55.7762 16.6887V14.3012C55.7762 14.2212 55.745 14.145 55.6887 14.0887C55.6325 14.0325 55.5562 14.0012 55.4762 14.0012H46.66C46.58 14.0012 46.5037 14.0325 46.4475 14.0887C46.3912 14.145 46.36 14.2212 46.36 14.3012V25.6862C46.36 25.7662 46.3912 25.8425 46.4475 25.8987C46.5037 25.955 46.58 25.9862 46.66 25.9862H55.6025C55.6825 25.9862 55.7587 25.955 55.815 25.8987C55.8712 25.8425 55.9025 25.7662 55.9025 25.6862V23.3037C55.9025 23.2637 55.895 23.225 55.88 23.1887C55.865 23.1525 55.8425 23.1187 55.815 23.0912C55.7875 23.0637 55.7537 23.0412 55.7175 23.0262C55.6812 23.0112 55.6425 23.0037 55.6025 23.0037L55.6012 23.0025Z" fill="white"/>
</g>
<defs>
<clipPath id="clip0_28_22">
<rect width="98" height="16" fill="white" transform="translate(1 12)"/>
</clipPath>
</defs>
</svg>

<svg xmlns="http://www.w3.org/2000/svg" width="100" height="40" fill="none" viewBox="0 -1 100 40"><g fill="#fff" clip-path="url(#a)"><path d="m9.63 22.745 4.344-10.278a.33.33 0 0 0-.068-.368.36.36 0 0 0-.241-.097H3.043a.33.33 0 0 0-.326.206l-1.69 4.07a.33.33 0 0 0-.002.26.3.3 0 0 0 .074.108q.049.047.111.072.061.026.127.026h5.145a.328.328 0 0 1 .3.459l-4.288 10.33a.33.33 0 0 0 .184.441q.06.026.127.026h11.259a.324.324 0 0 0 .326-.21l1.704-4.111a.327.327 0 0 0-.198-.428.3.3 0 0 0-.127-.026h-5.83a.33.33 0 0 1-.326-.328.4.4 0 0 1 .02-.153z"/><path d="M12.146 21.816h4.475a.32.32 0 0 0 .31-.205l1.959-4.66a.32.32 0 0 1 .31-.205h5.771a.325.325 0 0 0 .328-.206l1.67-4.071a.33.33 0 0 0-.184-.441.3.3 0 0 0-.126-.027h-10.71a.325.325 0 0 0-.328.207l-3.802 9.15a.33.33 0 0 0 .067.368q.048.048.111.072a.4.4 0 0 0 .148.02zM44.179 14h-10.88a.3.3 0 0 0-.3.3v2.488a.3.3 0 0 0 .3.3h3.317a.3.3 0 0 1 .3.3v8.297a.3.3 0 0 0 .3.3h3.041a.3.3 0 0 0 .3-.3v-8.297a.3.3 0 0 1 .3-.3h3.322a.3.3 0 0 0 .3-.3V14.3a.3.3 0 0 0-.3-.3m31.095 9.12c-.165 0-.207-.093-.097-.213l1.753-1.952c.111-.122.285-.327.392-.452l3.15-3.768a.97.97 0 0 0 .193-.531V14.3a.3.3 0 0 0-.3-.3h-9.108a.3.3 0 0 0-.3.3v2.301a.3.3 0 0 0 .3.3h2.1l2.656-.032c.164 0 .21.092.096.212l-1.751 1.953c-.108.122-.285.328-.393.456l-3.156 3.765a.97.97 0 0 0-.193.532v1.898a.3.3 0 0 0 .3.3h9.474a.3.3 0 0 0 .3-.3V23.39a.3.3 0 0 0-.3-.3h-2.471l-2.643.032zM86.275 14h-3.043a.3.3 0 0 0-.3.3v11.391a.3.3 0 0 0 .3.3h3.043a.3.3 0 0 0 .3-.3V14.3a.3.3 0 0 0-.3-.3M66.008 26a.64.64 0 0 1-.474-.244l-4.391-6.267c-.088-.138-.157-.118-.148.047l.09 6.163a.3.3 0 0 1-.3.3H58.2a.3.3 0 0 1-.3-.3V14.3a.3.3 0 0 1 .3-.3h2.327a.67.67 0 0 1 .48.24l4.164 5.877c.09.142.153.12.148-.044l-.09-5.773a.3.3 0 0 1 .3-.3h2.586a.3.3 0 0 1 .3.3v11.4a.3.3 0 0 1-.3.3zm32.965-.287-1.8-3.46-.373-.71a1 1 0 0 1-.054-.105l-.006-.023q0-.012.006-.023s.045-.053.097-.104c0 0 .27-.283.6-.706a4.04 4.04 0 0 0 .93-2.588 3.975 3.975 0 0 0-3.4-3.96 8 8 0 0 0-.402-.033h-5.445a.3.3 0 0 0-.3.3v11.373a.3.3 0 0 0 .3.3h2.67a.3.3 0 0 0 .3-.3v-3.6a.15.15 0 0 1 .045-.105.16.16 0 0 1 .105-.045h1.026a.26.26 0 0 1 .217.135l.531 1.107 1.221 2.526a.52.52 0 0 0 .433.27h3.116a.2.2 0 0 0 .099-.002.17.17 0 0 0 .112-.151.17.17 0 0 0-.027-.095zm-5.1-6.4h-1.752a.12.12 0 0 1-.082-.035.12.12 0 0 1-.035-.083V16.84a.12.12 0 0 1 .035-.082.12.12 0 0 1 .082-.035h1.8c1.003 0 1.395.524 1.395 1.268.009.846-.402 1.32-1.442 1.32zm-38.272 3.69h-5.576a.12.12 0 0 1-.12-.12v-1.518a.125.125 0 0 1 .12-.12h3.114a.3.3 0 0 0 .3-.3V18.59a.3.3 0 0 0-.3-.3h-3.114a.12.12 0 0 1-.12-.12v-1.065q.002-.048.036-.082a.12.12 0 0 1 .084-.034h5.451a.3.3 0 0 0 .3-.3V14.3a.3.3 0 0 0-.3-.3H46.66a.3.3 0 0 0-.3.3v11.385a.3.3 0 0 0 .3.3h8.943a.3.3 0 0 0 .3-.3v-2.382a.3.3 0 0 0-.3-.3z"/></g><defs><clipPath id="a"><path fill="#fff" d="M1 12h98v16H1z"/></clipPath></defs></svg>
